src/assets/icons/male.svg

<?xml version="1.0" encoding="utf-8"?>
<!-- Generator: Adobe Illustrator 26.3.0, SVG Export Plug-In . SVG Version: 6.00 Build 0)  -->
<svg version="1.1" xmlns="http://www.w3.org/2000/svg" xmlns:xlink="http://www.w3.org/1999/xlink" x="0px" y="0px"
	 viewBox="0 0 50 50" style="enable-background:new 0 0 50 50;" xml:space="preserve">
<style type="text/css">
	.st0{fill:#FFFFFF;}
	.st1{fill:#532B79;}
</style>
<g id="Layer_3">
	<circle class="st0" cx="25" cy="25" r="24.9500008"/>
</g>
<g id="Layer_1">
	<path class="st1" d="M37.4119568,38.0506058c-1.354538-0.817997-2.7090263-1.6360588-4.0635643-2.454052
		c0.0006371-0.0007553,0.0012932-0.0015144,0.0019302-0.0022697c-0.5041733-0.1736145-1.0820236-0.354847-1.7260151-0.5274048
		c-0.0021667,0.2801743-0.0037079,0.5613937-0.0042362,0.8442307c-0.0007229,0.3864212,0.0002365,0.7701912,0.0025654,1.1516953
		c-0.2087555,0.1454964-0.432312,0.2906113-0.6703682,0.4326286c-0.5502777,0.3282928-1.1787128,0.6395798-1.8881264,0.8974113
		c-1.1452713,0.4162369-2.2396297,0.5985794-3.2243328,0.6467323l-0.0028572-0.0035362l-0.4844666,0.0085258l-0.7578049-0.0133553
		l-0.0013256,0.0016441c-1.3452873-0.0798645-2.368679-0.3727798-2.8553982-0.5179329
		c-0.8522606-0.2541275-1.6090202-0.5823402-2.2714214-0.9382401c-0.3330402-0.1789398-0.6417809-0.3648682-0.9271278-0.5519562
		c0.0013142-0.2938271,0.0020905-0.5885735,0.0020256-0.8847046c-0.0000858-0.3856964-0.0016594-0.7689056-0.0040855-1.1506767
		c-0.6944504,0.1773224-1.316124,0.3665695-1.8568306,0.5486984c0.0001945,0.0002098,0.0003872,0.0004196,0.0005817,0.0006371
		c-1.2189751,1.0221405-2.437973,2.044323-3.6569805,3.0664673c0.0014229,0.0017624,0.0028353,0.0035248,0.0042582,0.0052872
		c-2.1626081,0.526104-4.2572899,1.2642059-5.9525499,2.2982712c1.0807219,1.2168198,2.2880659,2.3271408,3.5905437,3.3007126
		c1.3390551,1.0009003,2.7852411,1.8626747,4.2983723,2.5613823c1.5408783,0.7115173,3.1618423,1.2586784,4.8178635,1.6262894
		c1.5869961,0.3522949,3.2203884,0.5424957,4.8606377,0.5666161C24.7621384,48.9654579,24.881052,48.9664993,25,48.9664993
		c0.2950916,0,0.5899372-0.0060158,0.884428-0.0167465c1.5805378-0.057621,3.1495094-0.2688713,4.675684-0.6314049
		c1.7594986-0.4179535,3.4736786-1.0385971,5.0949211-1.8446846c1.5924835-0.79179,3.1008492-1.7650642,4.4832191-2.8927841
		c1.3471489-1.0989838,2.576519-2.3467369,3.6561165-3.7092667C42.0544167,38.9703903,39.8771706,38.410347,37.4119568,38.0506058z"
		/>
	<path class="st1" d="M14.2941809,14.4298754c-0.0420427,0.968111,0.0058537,1.7062273,0.0263357,1.9802885
		c0.187109-0.0682907,0.382206-0.1372452,0.583847-0.2063198c0.0939703,0.9369831,0.2364178,1.8685169,0.4265232,2.7891026
		c-0.4986954,0.5534248-0.8155746,1.3790512-0.8155746,2.3019772c0,1.499939,0.8361759,2.7436581,1.9313965,2.9771538
		c-0.3169441,2.5904789-0.3344936,5.9713459,0.3326302,7.1557121c0.0362854-0.1290531,0.0725708-0.2581024,0.1088562-0.3871498
		c0.1331005,0.8828545,0.5605412,1.7187595,1.1983643,2.3435192c0.0000858-0.1470642,0.0001945-0.2940826,0.0003128-0.4411354
		c0.1481819,0.2619591,0.2884636,0.5231171,0.4378529,0.7774391c0.2250977,0.3832092,0.4711952,0.7507248,0.7962799,1.0817986
		c0.1625404,0.1655388,0.3446369,0.3220711,0.5540943,0.4667397c-0.0090122-0.1847115-0.0180035-0.3693733-0.0270252-0.5540466
		c0.4308243,0.723114,0.9914513,1.2599297,1.8041801,1.8137856c-0.0018311-0.0897331-0.0036964-0.1794586-0.0055294-0.2692261
		c0.268261,0.3702469,0.6006756,0.7750511,1.0688534,1.1016731c0.0797615,0.0556488,0.1629944,0.1092911,0.2510128,0.1598167
		c0.0199966-0.0581474,0.0118141-0.1137733,0.0047112-0.1694946c-0.0065536-0.0513573-0.0121918-0.1027985,0.0062199-0.1563988
		c0.0432167,0.0553131,0.0954571,0.1054497,0.1545429,0.1510811c0.6343403,0.4898796,2.0785561,0.4488297,2.0785561,0.4488297
		s1.4031849,0.0398979,2.0508709-0.4280701c0.070631-0.051033,0.132412-0.1080132,0.1822796-0.1718407
		c0.0208817,0.0608063,0.0110188,0.1188545,0.0037632,0.1771393c-0.0060692,0.0488319-0.0103607,0.0978165,0.0071583,0.1487541
		c0.0787582-0.0452118,0.1538963-0.0927849,0.2260036-0.1421356c0.4815884-0.329586,0.8208351-0.742466,1.0938625-1.1193542
		c-0.0018215,0.0897675-0.0036983,0.179493-0.0055199,0.2692261c0.7814236-0.5325203,1.3294067-1.0497818,1.7534294-1.7315331
		c0.0169888-0.027317,0.0341511-0.0543976,0.0507526-0.0822525c-0.0015087,0.0308571-0.0030193,0.0617218-0.004528,0.0925789
		c-0.0075035,0.1538124-0.0149956,0.307621-0.0225086,0.4614677c0.16502-0.1139755,0.3130531-0.235321,0.447998-0.3625984
		c0.2518425-0.2375488,0.4575691-0.4960251,0.6403122-0.7671394c0.2571163-0.3814812,0.4689331-0.787899,0.6999168-1.1962395
		c0.0001183,0.1470528,0.0002365,0.2940712,0.0003548,0.4411354c0.637825-0.6247597,1.0652313-1.4606647,1.1983223-2.3435192
		c0.0362854,0.1290474,0.0725822,0.2580967,0.1088676,0.3871498c0.6671143-1.1843662,0.6495628-4.5652332,0.3326302-7.1557121
		c1.0952187-0.2334957,1.931385-1.4772148,1.931385-2.9771538c0-1.4365406-0.7671204-2.637743-1.7941132-2.9418831
		c0.295784-0.7036648,0.5355415-1.4308071,0.7155685-2.1726093c0.2160225,0.0732708,0.4234962,0.1459789,0.6198769,0.2172222
		c0.0015068-0.1200123,0.0029716-0.2988853,0.0017014-0.515481c0,0,0.0316391-1.6711826-0.1777954-3.0429363
		c-0.016861-0.1104336-0.033699-0.2206783-0.0507202-0.3307161c-0.0255814-0.5577383-0.1088905-1.1107979-0.2957306-1.630722
		C34.6653938,9.7289143,34.26474,8.6415739,33.462513,7.6914659c-1.568327-1.8573785-3.8432827-2.2107916-6.2298565-2.581593
		c-1.3613701-0.211483-3.8242664-0.4054995-6.6626968,0.4483314c-0.8943348,0.2690296-2.0308971,0.6108246-3.0144691,1.298522
		c-1.6914654,1.1825824-2.5253992,3.1048884-2.926568,4.925302c-0.2956533,0.8505058-0.4258976,1.7569542-0.3384504,2.6601992
		C14.2917118,14.4381094,14.2929411,14.4339933,14.2941809,14.4298754z M33.8985214,19.3257351
		c-0.0001411,0.3685951-0.0011101,0.7420082-0.0011101,1.1195889c0,0.9767761-0.0150833,1.9260559-0.0670204,2.834444
		c-0.0138092,0.2414017-0.0302391,0.4798946-0.0496521,0.7152653c-0.022068,0.1053905-0.0478439,0.2098923-0.0768509,0.3135834
		c-0.2525444,0.9029694-0.7531281,1.7434711-1.2440834,2.5541801c-0.2960091,0.4888134-0.6056557,0.990797-0.9919472,1.4064751
		c-0.2269421,0.2441998-0.4802189,0.4587345-0.773016,0.6229801c-0.6364326,0.3569641-2.5967522,0.9607601-3.6640968,0.3459949
		c-0.9684258-0.5577908-1.0690022-0.4244747-1.0690022-0.4244747h-1.5021687c0,0,0.0287399-0.1644821-1.0690365,0.4244747
		c-1.0854111,0.5823345-3.0276203,0.0109692-3.6640854-0.3459949c-0.2927952-0.1642456-0.5460625-0.3787804-0.7730045-0.6229801
		c-0.3862915-0.415678-0.6959496-0.9176617-0.9919701-1.4064751c-0.4909554-0.810709-0.9915371-1.651207-1.2440815-2.5541763
		c-0.0290203-0.103775-0.0548172-0.2083626-0.0768948-0.3138409c-0.0194149-0.2352905-0.0358315-0.4737015-0.0496311-0.7150154
		c-0.0519485-0.90839-0.06703-1.8576679-0.06703-2.8344402c0-0.2791271-0.0005283-0.5559483-0.0008621-0.8302727
		c0.0534153-0.1074314,0.108263-0.2140522,0.1652355-0.3194408c0.178669-0.3305302,0.3749733-0.650425,0.5867157-0.9585972
		c0.9363651-1.3627625,2.1816025-2.4903908,3.6138725-3.2317619c-0.1735916,0.5206356-0.4630356,0.9977512-0.8383217,1.3819427
		c1.9415302-0.2340584,3.8234024-0.9129915,5.5152893-1.9429579c2.6342335,0.0577946,4.9474831,0.4477386,6.846981,0.9248095
		c0.0239105,0.032855,0.0471535,0.066144,0.0714073,0.098772c0.0031166-0.0260687,0.0062294-0.0521402,0.009346-0.0782089
		c0.1977692,0.0502348,0.3911743,0.1012945,0.579731,0.1530743c0.2141113,0.8796635,0.4282341,1.7593231,0.6423492,2.6389694
		c0.0505371,0.207613,0.1010742,0.4152336,0.1516113,0.6228447c0.0105629-0.0224152,0.0203934-0.0451679,0.0308418-0.0676403
		C33.898468,18.9988079,33.8985863,19.161787,33.8985214,19.3257351z"/>
	<path class="st1" d="M25,0.4C38.5644913,0.4,49.5999985,11.4355097,49.5999985,25S38.5644913,49.5999985,25,49.5999985
		S0.4,38.5644913,0.4,25S11.4355097,0.4,25,0.4 M25,0C11.1928797,0,0,11.1928797,0,25s11.1928797,25,25,25s25-11.1928787,25-25
		S38.8071213,0,25,0L25,0z"/>
</g>
</svg>

<svg width="50" height="50" viewBox="0 0 50 50" fill="none" xmlns="http://www.w3.org/2000/svg">
<g clip-path="url(#clip0_1_20)">
<path d="M25 49.95C38.7795 49.95 49.95 38.7795 49.95 25C49.95 11.2205 38.7795 0.0500031 25 0.0500031C11.2205 0.0500031 0.0499992 11.2205 0.0499992 25C0.0499992 38.7795 11.2205 49.95 25 49.95Z" fill="white"/>
<path d="M37.412 38.0506C36.0574 37.2326 34.7029 36.4146 33.3484 35.5966C33.349 35.5958 33.3497 35.595 33.3503 35.5943C32.8462 35.4207 32.2683 35.2394 31.6243 35.0669C31.6221 35.3471 31.6206 35.6283 31.6201 35.9111C31.6194 36.2975 31.6203 36.6813 31.6226 37.0628C31.4139 37.2083 31.1903 37.3534 30.9523 37.4954C30.402 37.8237 29.7736 38.135 29.0641 38.3928C27.9189 38.8091 26.8245 38.9914 25.8398 39.0396L25.837 39.036L25.3525 39.0446L24.5947 39.0312L24.5934 39.0329C23.2481 38.953 22.2247 38.6601 21.738 38.5149C20.8857 38.2608 20.1289 37.9326 19.4665 37.5767C19.1335 37.3977 18.8248 37.2118 18.5394 37.0247C18.5407 36.7309 18.5415 36.4362 18.5414 36.14C18.5413 35.7543 18.5398 35.3711 18.5373 34.9893C17.8429 35.1667 17.2212 35.3559 16.6805 35.538C16.6803 35.5378 16.6807 35.5383 16.6805 35.538C15.4615 36.5602 14.2431 37.583 13.0241 38.6052C13.0255 38.6069 13.027 38.6087 13.0284 38.6104C10.8658 39.1365 8.77109 39.8746 7.07583 40.9087C8.15655 42.1255 9.36389 43.2359 10.6664 44.2094C12.0054 45.2103 13.4516 46.0721 14.9647 46.7708C16.5056 47.4823 18.1266 48.0295 19.7826 48.3971C21.3696 48.7494 23.003 48.9396 24.6432 48.9637C24.7621 48.9655 24.8811 48.9665 25 48.9665C25.2951 48.9665 25.5899 48.9605 25.8844 48.9498C27.465 48.8921 29.0339 48.6809 30.5601 48.3184C32.3196 47.9004 34.0338 47.2798 35.655 46.4737C37.2475 45.6819 38.7559 44.7086 40.1383 43.5809C41.4854 42.4819 42.7148 41.2341 43.7944 39.8716C42.0544 38.9704 39.8772 38.4104 37.412 38.0506Z" fill="#071952"/>
<path d="M14.2942 14.4299C14.2521 15.398 14.3 16.1361 14.3205 16.4102C14.5076 16.3419 14.7027 16.2729 14.9044 16.2038C14.9983 17.1408 15.1408 18.0724 15.3309 18.993C14.8322 19.5464 14.5153 20.372 14.5153 21.2949C14.5153 22.7949 15.3515 24.0386 16.4467 24.2721C16.1298 26.8626 16.1122 30.2434 16.7793 31.4278C16.8156 31.2987 16.8519 31.1697 16.8882 31.0406C17.0213 31.9235 17.4487 32.7594 18.0866 33.3842C18.0866 33.2371 18.0868 33.0901 18.0869 32.943C18.2351 33.205 18.3753 33.4661 18.5247 33.7205C18.7498 34.1037 18.9959 34.4712 19.321 34.8023C19.4835 34.9678 19.6656 35.1243 19.8751 35.269C19.8661 35.0843 19.8571 34.8996 19.8481 34.715C20.2789 35.4381 20.8395 35.9749 21.6523 36.5287C21.6504 36.439 21.6486 36.3493 21.6467 36.2595C21.915 36.6298 22.2474 37.0346 22.7156 37.3612C22.7953 37.4168 22.8786 37.4705 22.9666 37.521C22.9866 37.4629 22.9784 37.4072 22.9713 37.3515C22.9647 37.3002 22.9591 37.2487 22.9775 37.1951C23.0207 37.2504 23.073 37.3006 23.1321 37.3462C23.7664 37.8361 25.2106 37.795 25.2106 37.795C25.2106 37.795 26.6138 37.8349 27.2615 37.367C27.3321 37.3159 27.3939 37.2589 27.4438 37.1951C27.4647 37.2559 27.4548 37.314 27.4475 37.3723C27.4415 37.4211 27.4372 37.4701 27.4547 37.521C27.5335 37.4758 27.6086 37.4282 27.6807 37.3789C28.1623 37.0493 28.5015 36.6364 28.7746 36.2595C28.7727 36.3493 28.7709 36.439 28.769 36.5287C29.5505 35.9962 30.0984 35.479 30.5225 34.7972C30.5395 34.7699 30.5566 34.7428 30.5732 34.715C30.5717 34.7458 30.5702 34.7767 30.5687 34.8075C30.5612 34.9614 30.5537 35.1152 30.5462 35.269C30.7112 35.155 30.8592 35.0337 30.9942 34.9064C31.246 34.6689 31.4518 34.4104 31.6345 34.1393C31.8916 33.7578 32.1034 33.3514 32.3344 32.943C32.3345 33.0901 32.3346 33.2371 32.3348 33.3842C32.9726 32.7594 33.4 31.9235 33.5331 31.0406C33.5694 31.1697 33.6057 31.2987 33.642 31.4278C34.3091 30.2434 34.2915 26.8626 33.9746 24.2721C35.0698 24.0386 35.906 22.7949 35.906 21.2949C35.906 19.8584 35.1389 18.6572 34.1119 18.353C34.4076 17.6494 34.6474 16.9222 34.8274 16.1804C35.0434 16.2537 35.2509 16.3264 35.4473 16.3977C35.4488 16.2776 35.4503 16.0988 35.449 15.8822C35.449 15.8822 35.4806 14.211 35.2712 12.8392C35.2543 12.7288 35.2375 12.6186 35.2205 12.5085C35.1949 11.9508 35.1116 11.3977 34.9248 10.8778C34.6654 9.72892 34.2647 8.64158 33.4625 7.69147C31.8942 5.83409 29.6192 5.48068 27.2327 5.10988C25.8713 4.8984 23.4084 4.70438 20.57 5.55821C19.6756 5.82724 18.5391 6.16903 17.5555 6.85673C15.864 8.03931 15.0301 9.96162 14.6289 11.782C14.3333 12.6325 14.203 13.539 14.2905 14.4422C14.2917 14.4381 14.2929 14.434 14.2942 14.4299ZM33.8985 19.3257C33.8984 19.6943 33.8974 20.0677 33.8974 20.4453C33.8974 21.4221 33.8823 22.3714 33.8304 23.2798C33.8166 23.5212 33.8002 23.7597 33.7807 23.995C33.7587 24.1004 33.7329 24.2049 33.7039 24.3086C33.4513 25.2116 32.9508 26.0521 32.4598 26.8628C32.1638 27.3516 31.8541 27.8536 31.4679 28.2693C31.2409 28.5135 30.9876 28.728 30.6948 28.8923C30.0584 29.2492 28.0981 29.853 27.0307 29.2383C26.0623 28.6805 25.9617 28.8138 25.9617 28.8138H24.4596C24.4596 28.8138 24.4883 28.6493 23.3905 29.2383C22.3051 29.8206 20.3629 29.2492 19.7265 28.8923C19.4337 28.728 19.1804 28.5135 18.9534 28.2693C18.5672 27.8536 18.2575 27.3516 17.9615 26.8628C17.4705 26.0521 16.9699 25.2116 16.7174 24.3086C16.6884 24.2049 16.6626 24.1003 16.6405 23.9948C16.6211 23.7595 16.6047 23.5211 16.5909 23.2798C16.5389 22.3714 16.5238 21.4221 16.5238 20.4453C16.5238 20.1662 16.5233 19.8894 16.523 19.6151C16.5764 19.5076 16.6312 19.401 16.6882 19.2956C16.8669 18.9651 17.0632 18.6452 17.2749 18.337C18.2113 16.9743 19.4565 15.8466 20.8888 15.1053C20.7152 15.6259 20.4258 16.103 20.0505 16.4872C21.992 16.2531 23.8739 15.5742 25.5658 14.5442C28.2 14.602 30.5133 14.992 32.4128 15.4691C32.4367 15.5019 32.4599 15.5352 32.4842 15.5678C32.4873 15.5418 32.4904 15.5157 32.4935 15.4896C32.6913 15.5398 32.8847 15.5909 33.0732 15.6427C33.2873 16.5224 33.5015 17.402 33.7156 18.2817C33.7661 18.4893 33.8167 18.6969 33.8672 18.9045C33.8778 18.8821 33.8876 18.8593 33.898 18.8369C33.8985 18.9988 33.8986 19.1618 33.8985 19.3257Z" fill="#071952"/>
<path d="M25 0.4C38.5645 0.4 49.6 11.4355 49.6 25C49.6 38.5645 38.5645 49.6 25 49.6C11.4355 49.6 0.4 38.5645 0.4 25C0.4 11.4355 11.4355 0.4 25 0.4ZM25 0C11.1929 0 0 11.1929 0 25C0 38.8071 11.1929 50 25 50C38.8071 50 50 38.8071 50 25C50 11.1929 38.8071 0 25 0Z" fill="#071952"/>
</g>
<defs>
<clipPath id="clip0_1_20">
<rect width="50" height="50" fill="white"/>
</clipPath>
</defs>
</svg>
